Numix-GalliumOS/scalable/status/avatar-default-symbolic.svg

<?xml version="1.0" encoding="UTF-8" standalone="no"?>
<svg
   xmlns:dc="http://purl.org/dc/elements/1.1/"
   xmlns:cc="http://creativecommons.org/ns#"
   xmlns:rdf="http://www.w3.org/1999/02/22-rdf-syntax-ns#"
   xmlns:svg="http://www.w3.org/2000/svg"
   xmlns="http://www.w3.org/2000/svg"
   xmlns:sodipodi="http://sodipodi.sourceforge.net/DTD/sodipodi-0.dtd"
   xmlns:inkscape="http://www.inkscape.org/namespaces/inkscape"
   width="16"
   viewBox="0 0 16 16"
   height="16"
   id="svg2"
   version="1.1"
   inkscape:version="0.48.4 r9939"
   sodipodi:docname="avatar-default-symbolic.svg">
  <metadata
     id="metadata10">
    <rdf:RDF>
      <cc:Work
         rdf:about="">
        <dc:format>image/svg+xml</dc:format>
        <dc:type
           rdf:resource="http://purl.org/dc/dcmitype/StillImage" />
        <dc:title></dc:title>
      </cc:Work>
    </rdf:RDF>
  </metadata>
  <defs
     id="defs8" />
  <sodipodi:namedview
     pagecolor="#ffffff"
     bordercolor="#666666"
     borderopacity="1"
     objecttolerance="10"
     gridtolerance="10"
     guidetolerance="10"
     inkscape:pageopacity="0"
     inkscape:pageshadow="2"
     inkscape:window-width="1920"
     inkscape:window-height="1023"
     id="namedview6"
     showgrid="true"
     inkscape:zoom="51.397305"
     inkscape:cx="2.7678751"
     inkscape:cy="8.0000941"
     inkscape:window-x="0"
     inkscape:window-y="28"
     inkscape:window-maximized="1"
     inkscape:current-layer="svg2">
    <inkscape:grid
       type="xygrid"
       id="grid3170" />
  </sodipodi:namedview>
  <path
     inkscape:connector-curvature="0"
     id="path3146"
     d="M 7.0625,15.856431 C 5.4381719,15.790761 4.3388506,15.666371 3.4892319,15.452096 2.5165856,15.206794 1.822659,14.835205 1.536245,14.406297 1.338266,14.109821 1.305061,13.956512 1.317544,13.396541 1.328054,12.925011 1.328874,12.920327 1.440811,12.6875 1.714462,12.118335 2.2198295,11.635834 3.15625,11.049682 3.6192609,10.759861 4.5704684,10.291939 5.25,10.019718 5.9259616,9.7489263 6.0767759,9.64132 6.225365,9.3237922 6.300307,9.1636447 6.315972,9.0892741 6.315972,8.8936344 6.315972,8.5198119 6.247458,8.3307419 6.0185742,8.0729413 5.0548784,6.9874944 4.4375,5.3785816 4.4375,3.9525991 4.4375,2.3748478 5.1141878,1.141633 6.3050459,0.54913031 6.8081428,0.29881834 7.2501925,0.18988726 7.859375,0.16610841 9.5280853,0.10097191 10.903952,1.0338567 11.373584,2.5488626 11.621339,3.348105 11.627359,4.4175281 11.389404,5.359375 11.158316,6.2740472 10.636328,7.3148662 10.09874,7.932895 9.8178689,8.2557925 9.7912614,8.3027481 9.7336811,8.5771281 c -0.06892,0.3284163 -0.050718,0.6599266 0.047736,0.8693769 0.109655,0.2332809 0.2534029,0.3378103 0.6733189,0.4896184 2.202668,0.7963096 3.758509,1.8498416 4.144742,2.8065956 0.06601,0.16352 0.07233,0.226884 0.07236,0.726031 3.1e-5,0.530851 -0.0025,0.552231 -0.0856,0.729675 -0.356614,0.761256 -1.475658,1.251022 -3.435305,1.503512 -0.863344,0.111237 -3.0833394,0.195127 -4.0884356,0.154494 z"
     style="fill:#bebebe;fill-opacity:1" />
</svg>

<svg xmlns="http://www.w3.org/2000/svg" viewBox="0 0 16 16">
 <path d="m 7.06 15.856 c -1.624 -0.066 -2.724 -0.19 -3.573 -0.404 -0.973 -0.245 -1.667 -0.617 -1.953 -1.046 -0.198 -0.296 -0.231 -0.45 -0.219 -1.01 0.011 -0.472 0.011 -0.476 0.123 -0.709 0.274 -0.569 0.779 -1.052 1.715 -1.638 0.463 -0.29 1.414 -0.758 2.094 -1.03 0.676 -0.271 0.827 -0.378 0.975 -0.696 0.075 -0.16 0.091 -0.235 0.091 -0.43 0 -0.374 -0.069 -0.563 -0.297 -0.821 -0.964 -1.085 -1.581 -2.694 -1.581 -4.12 0 -1.578 0.677 -2.811 1.868 -3.403 0.503 -0.25 0.945 -0.359 1.554 -0.383 1.669 -0.065 3.045 0.868 3.514 2.383 0.248 0.799 0.254 1.869 0.016 2.811 -0.231 0.915 -0.753 1.955 -1.291 2.574 -0.281 0.323 -0.307 0.37 -0.365 0.644 c -0.069 0.328 -0.051 0.66 0.048 0.869 0.11 0.233 0.253 0.338 0.673 0.49 2.203 0.796 3.759 1.85 4.145 2.807 0.066 0.164 0.072 0.227 0.072 0.726 0 0.531 -0.002 0.552 -0.086 0.73 -0.357 0.761 -1.476 1.251 -3.435 1.504 -0.863 0.111 -3.083 0.195 -4.088 0.154 z" style="fill:#bebebe;fill-opacity:1"/>
</svg>
